!!!COM: Corelli, Arcangelo
!!!OTL: 
!!!ONM: Opus 6, No. 12
!!!OMV: 2
!!!CDT: 1653/2/17/-1713/1/8/
!!!OCY: Italia
**kern	**kern	**kern	**kern	**kern	**kern	**kern
*clefC	*clefG	*clefG	*clefG	*clefC	*clefG	*clefG
*k[b-]	*k[b-]	*k[b-]	*k[b-]	*k[b-]	*k[b-]	*k[b-]
*F:	*F:	*F:	*F:	*F:	*F:	*F:
*M4/4	*M4/4	*M4/4	*M4/4	*M4/4	*M4/4	*M4/4
2..r	2..r	2..r	2..r	2..r	2..r	2..r
8r	8r	8r	8r	8r	8r	8cc
=1	=1	=1	=1	=1	=1	=1
1r	1r	1r	1r	4F	1r	16ff
.	.	.	.	.	.	16ee
.	.	.	.	.	.	16ff
.	.	.	.	.	.	16gg
.	.	.	.	8r	.	16ff
.	.	.	.	.	.	16gg
.	.	.	.	8f	.	16ee
.	.	.	.	.	.	16ff
.	.	.	.	8e	.	16gg
.	.	.	.	.	.	16ff
.	.	.	.	8d	.	16gg
.	.	.	.	.	.	16aa
.	.	.	.	8e	.	16gg
.	.	.	.	.	.	16aa
.	.	.	.	8c	.	16ff
.	.	.	.	.	.	16gg
=2	=2	=2	=2	=2	=2	=2
1r	1r	1r	2..r	4f	1r	16aa
.	.	.	.	.	.	16gg
.	.	.	.	.	.	16aa
.	.	.	.	.	.	16bb-
.	.	.	.	4F	.	16aa
.	.	.	.	.	.	16bb-
.	.	.	.	.	.	16ff
.	.	.	.	.	.	16aa
.	.	.	.	4c	.	4gg
.	.	.	.	4r	.	8r
.	.	.	8cc	.	.	8cc
=3	=3	=3	=3	=3	=3	=3
4F	4c	4a	16ff	4F	4a	16ff
.	.	.	16ee	.	.	16ee
.	.	.	16ff	.	.	16ff
.	.	.	16gg	.	.	16gg
8r	8r	8r	16ff	8r	8r	16ff
.	.	.	16gg	.	.	16gg
8F	8c	8a	16ee	8F	8a	16ee
.	.	.	16ff	.	.	16ff
8E	4c	4cc	16gg	8E	4cc	16gg
.	.	.	16ff	.	.	16ff
8D	.	.	16gg	8D	.	16gg
.	.	.	16aa	.	.	16aa
8E	8r	8r	16gg	8E	8r	16gg
.	.	.	16aa	.	.	16aa
8C	8c	8cc	16ff	8C	8cc	16ff
.	.	.	16gg	.	.	16gg
=4	=4	=4	=4	=4	=4	=4
4F	4A	4cc	16aa	4F	4cc	16aa
.	.	.	16gg	.	.	16gg
.	.	.	16aa	.	.	16aa
.	.	.	16bb-	.	.	16bb-
4FF	4c	4ff	16aa	4FF	4ff	16aa
.	.	.	16bb-	.	.	16bb-
.	.	.	16ff	.	.	16ff
.	.	.	16aa	.	.	16aa
4C	4c	4ee	4gg	4C	4ee	4gg
4r	4r	4r	4r	4r	4r	8r
.	.	.	.	.	.	16ccc
.	.	.	.	.	.	16bb-
=5	=5	=5	=5	=5	=5	=5
2r	2r	2r	2r	8A	2r	16aa
.	.	.	.	.	.	16ccc
.	.	.	.	8B-	.	16bb-
.	.	.	.	.	.	16ccc
.	.	.	.	8c	.	16aa
.	.	.	.	.	.	16ccc
.	.	.	.	8A	.	16bb-
.	.	.	.	.	.	16ccc
4d	4dd	4ff	4aa	8d	4ff	16ff
.	.	.	.	.	.	16aa
.	.	.	.	8D	.	16ff
.	.	.	.	.	.	16aa
4D	4a	4d	4f	8F	4d	16ff
.	.	.	.	.	.	16aa
.	.	.	.	8D	.	16ff
.	.	.	.	.	.	16aa
=6	=6	=6	=6	=6	=6	=6
2r	2r	2r	2r	8r	2r	16dd
.	.	.	.	.	.	16bb-
.	.	.	.	8G	.	16dd
.	.	.	.	.	.	16bb-
.	.	.	.	8B-	.	16dd
.	.	.	.	.	.	16bb-
.	.	.	.	8G	.	16dd
.	.	.	.	.	.	16bb-
4c	4cc	4ee	4gg	8c	4ee	16ee
.	.	.	.	.	.	16gg
.	.	.	.	8C	.	16ee
.	.	.	.	.	.	16gg
4C	4g	4c	4e	8E	4c	16ee
.	.	.	.	.	.	16gg
.	.	.	.	8C	.	16ee
.	.	.	.	.	.	16gg
=7	=7	=7	=7	=7	=7	=7
2r	2r	2r	2r	8r	2r	16cc
.	.	.	.	.	.	16aa
.	.	.	.	8F	.	16cc
.	.	.	.	.	.	16aa
.	.	.	.	8A	.	16cc
.	.	.	.	.	.	16aa
.	.	.	.	8F	.	16cc
.	.	.	.	.	.	16aa
4B-	4b-	4dd	4ff	8B-	4dd	16dd
.	.	.	.	.	.	16ff
.	.	.	.	8BB-	.	16dd
.	.	.	.	.	.	16ff
4BB-	4f	4B-	4d	8D	4B-	16dd
.	.	.	.	.	.	16ff
.	.	.	.	8BB-	.	16dd
.	.	.	.	.	.	16ff
=8	=8	=8	=8	=8	=8	=8
2r	2r	2r	2r	8r	2r	16b
.	.	.	.	.	.	16gg
.	.	.	.	8G	.	16b
.	.	.	.	.	.	16gg
.	.	.	.	8B	.	16b
.	.	.	.	.	.	16gg
.	.	.	.	8G	.	16b
.	.	.	.	.	.	16gg
4c	4cc	4gg	4ee	4c	4gg	16ee
.	.	.	.	.	.	16cc
.	.	.	.	.	.	16ee
.	.	.	.	.	.	16cc
4C	4g	4e	4c	4C	4e	16ee
.	.	.	.	.	.	16cc
.	.	.	.	.	.	16ee
.	.	.	.	.	.	16cc
=9	=9	=9	=9	=9	=9	=9
8E	4.c	4.gg	16gg	8E	4.gg	16gg
.	.	.	16ee	.	.	16ee
8D	.	.	16gg	8D	.	16gg
.	.	.	16ee	.	.	16ee
8E	.	.	16gg	8E	.	16gg
.	.	.	16ee	.	.	16ee
8C	8c	8gg	16gg	8C	8gg	16gg
.	.	.	16ee	.	.	16ee
8F	4c	4gg	16aa	8F	4gg	16aa
.	.	.	16ff	.	.	16ff
8E	.	.	16aa	8E	.	16aa
.	.	.	16ff	.	.	16ff
8F	4f	4ff	16aa	8F	4ff	16aa
.	.	.	16ff	.	.	16ff
8D	.	.	16aa	8D	.	16aa
.	.	.	16ff	.	.	16ff
=10	=10	=10	=10	=10	=10	=10
8G	4d	4.ff	16bb	8G	4.ff	16bb
.	.	.	16gg	.	.	16gg
8F	.	.	16bb	8F	.	16bb
.	.	.	16gg	.	.	16gg
8G	4g	.	16bb	8G	.	16bb
.	.	.	16gg	.	.	16gg
8E	.	8ff	16bb	8E	8ff	16bb
.	.	.	16gg	.	.	16gg
8A	2c	4ff	4ccc	8A	4ff	4ccc
8B	.	.	.	8B	.	.
8c	.	4ee	8r	8c	4ee	8r
8E	.	.	8gg	8E	.	8gg
=11	=11	=11	=11	=11	=11	=11
8F	4.c	4.a	8aa	8F	4.a	8aa
8G	.	.	8cc	8G	.	8cc
8A	.	.	4.ff	8A	.	4.ff
8F	8f	8dd	.	8F	8dd	.
8G	4d	8b	.	8G	8b	.
8B	.	8g	8gg	8B	8g	8gg
8c	8e	[4cc	8ee	8c	[4cc	8ee
8F	8a	.	8dd	8F	.	8dd
=12	=12	=12	=12	=12	=12	=12
8G	4.g	4cc]	4ee	8G	4cc]	4ee
8F	.	.	.	8F	.	.
8G	.	4b	4dd	8G	4b	4dd
8GG	8g	.	.	8GG	.	.
4C	4e	4cc	4cc	8C	4cc	4cc
.	.	.	.	8c	.	.
4r	4r	4r	4r	8B-	4r	8r
.	.	.	.	8c	.	8cc
=13	=13	=13	=13	=13	=13	=13
2r	2r	2r	2r	8A	2r	16ff
.	.	.	.	.	.	16ee
.	.	.	.	8F	.	16ff
.	.	.	.	.	.	16gg
.	.	.	.	8A	.	16ff
.	.	.	.	.	.	16gg
.	.	.	.	8F	.	16ee
.	.	.	.	.	.	16ff
4B-	4b-	4ff	4dd	8B-	4ff	16dd
.	.	.	.	.	.	16cc
.	.	.	.	8BB-	.	16dd
.	.	.	.	.	.	16ee
4BB-	4f	4d	4B-	8D	4d	16ff
.	.	.	.	.	.	16ee
.	.	.	.	8BB-	.	16ff
.	.	.	.	.	.	16dd
=14	=14	=14	=14	=14	=14	=14
2r	2r	2r	2r	8r	2r	16gg
.	.	.	.	.	.	16ff
.	.	.	.	8G	.	16gg
.	.	.	.	.	.	16aa
.	.	.	.	8B	.	16gg
.	.	.	.	.	.	16aa
.	.	.	.	8G	.	16ff
.	.	.	.	.	.	16gg
4c	4cc	4gg	4ee	8c	4gg	16ee
.	.	.	.	.	.	16dd
.	.	.	.	8C	.	16ee
.	.	.	.	.	.	16ff
4C	4g	4e	4c	8E	4e	16gg
.	.	.	.	.	.	16ff
.	.	.	.	8C	.	16gg
.	.	.	.	.	.	16ee
=15	=15	=15	=15	=15	=15	=15
2r	2r	2r	2r	8r	2r	16aa
.	.	.	.	.	.	16gg
.	.	.	.	8A	.	16aa
.	.	.	.	.	.	16bb-
.	.	.	.	8c#	.	16aa
.	.	.	.	.	.	16bb-
.	.	.	.	8A	.	16gg
.	.	.	.	.	.	16aa
4d	4dd	4aa	4ff	8d	4aa	16ff
.	.	.	.	.	.	16ee
.	.	.	.	8D	.	16ff
.	.	.	.	.	.	16gg
4D	4a	4f	4d	8F	4f	16aa
.	.	.	.	.	.	16gg
.	.	.	.	8D	.	16aa
.	.	.	.	.	.	16ff
=16	=16	=16	=16	=16	=16	=16
2r	2r	2r	2r	8r	2r	16bb-
.	.	.	.	.	.	16aa
.	.	.	.	8B-	.	16gg
.	.	.	.	.	.	16ff
.	.	.	.	8d	.	16bb-
.	.	.	.	.	.	16aa
.	.	.	.	8B-	.	16gg
.	.	.	.	.	.	16ff
4c	4cc	4gg	4ee	4c	4gg	4ee
4C	4g	4e	4c	4C	4e	16r
.	.	.	.	.	.	16ccc
.	.	.	.	.	.	16ccc
.	.	.	.	.	.	16ccc
=17	=17	=17	=17	=17	=17	=17
1r	1r	1r	1r	4A	1r	16a
.	.	.	.	.	.	16ccc
.	.	.	.	.	.	16ccc
.	.	.	.	.	.	16ccc
.	.	.	.	4r	.	16a
.	.	.	.	.	.	16ccc
.	.	.	.	.	.	16ccc
.	.	.	.	.	.	16ccc
.	.	.	.	4d	.	16ff
.	.	.	.	.	.	16ccc
.	.	.	.	.	.	16ccc
.	.	.	.	.	.	16ccc
.	.	.	.	4r	.	16ff
.	.	.	.	.	.	16ccc
.	.	.	.	.	.	16ccc
.	.	.	.	.	.	16ccc
=18	=18	=18	=18	=18	=18	=18
1r	1r	1r	1r	4G	1r	16ff
.	.	.	.	.	.	16bb-
.	.	.	.	.	.	16bb-
.	.	.	.	.	.	16bb-
.	.	.	.	4r	.	16ff
.	.	.	.	.	.	16bb-
.	.	.	.	.	.	16bb-
.	.	.	.	.	.	16bb-
.	.	.	.	4c	.	16ee
.	.	.	.	.	.	16bb-
.	.	.	.	.	.	16bb-
.	.	.	.	.	.	16bb-
.	.	.	.	4r	.	16ee
.	.	.	.	.	.	16bb-
.	.	.	.	.	.	16bb-
.	.	.	.	.	.	16bb-
=19	=19	=19	=19	=19	=19	=19
1r	1r	1r	1r	4F	1r	16ee
.	.	.	.	.	.	16aa
.	.	.	.	.	.	16aa
.	.	.	.	.	.	16aa
.	.	.	.	4r	.	16ee
.	.	.	.	.	.	16aa
.	.	.	.	.	.	16aa
.	.	.	.	.	.	16aa
.	.	.	.	4B-	.	16dd
.	.	.	.	.	.	16aa
.	.	.	.	.	.	16aa
.	.	.	.	.	.	16aa
.	.	.	.	4r	.	16dd
.	.	.	.	.	.	16aa
.	.	.	.	.	.	16aa
.	.	.	.	.	.	16aa
=20	=20	=20	=20	=20	=20	=20
1r	1r	1r	1r	4B	1r	16dd
.	.	.	.	.	.	16gg
.	.	.	.	.	.	16gg
.	.	.	.	.	.	16gg
.	.	.	.	4r	.	16dd
.	.	.	.	.	.	16gg
.	.	.	.	.	.	16gg
.	.	.	.	.	.	16gg
.	.	.	.	4c	.	16ee
.	.	.	.	.	.	16cc
.	.	.	.	.	.	16ee
.	.	.	.	.	.	16cc
.	.	.	.	4r	.	16ee
.	.	.	.	.	.	16cc
.	.	.	.	.	.	16ee
.	.	.	.	.	.	16cc
=21	=21	=21	=21	=21	=21	=21
4A	4f	4cc	4ff	4A	4cc	16ff
.	.	.	.	.	.	16cc
.	.	.	.	.	.	16ff
.	.	.	.	.	.	16cc
4r	4r	4r	4r	4r	4r	16ff
.	.	.	.	.	.	16cc
.	.	.	.	.	.	16ff
.	.	.	.	.	.	16cc
4E	4c	4cc	4gg	4E	4cc	16gg
.	.	.	.	.	.	16cc
.	.	.	.	.	.	16gg
.	.	.	.	.	.	16cc
4r	4r	4r	4r	4r	4r	16gg
.	.	.	.	.	.	16cc
.	.	.	.	.	.	16gg
.	.	.	.	.	.	16cc
=22	=22	=22	=22	=22	=22	=22
4F	4A	4cc	4aa	4F	4cc	16aa
.	.	.	.	.	.	16cc
.	.	.	.	.	.	16aa
.	.	.	.	.	.	16cc
4r	4r	4r	4r	4r	4r	16aa
.	.	.	.	.	.	16cc
.	.	.	.	.	.	16aa
.	.	.	.	.	.	16cc
4E	4c	4cc	4gg	4E	4cc	16gg
.	.	.	.	.	.	16cc
.	.	.	.	.	.	16gg
.	.	.	.	.	.	16cc
4r	4r	4r	4r	4r	4r	16gg
.	.	.	.	.	.	16cc
.	.	.	.	.	.	16gg
.	.	.	.	.	.	16cc
=23	=23	=23	=23	=23	=23	=23
4D	4.f	4cc	4.ff	4D	4cc	16ff
.	.	.	.	.	.	16cc
.	.	.	.	.	.	16ff
.	.	.	.	.	.	16cc
4G	.	4.b-	.	4G	4.b-	16ff
.	.	.	.	.	.	16b-
.	8b-	.	8gg	.	.	16ff
.	.	.	.	.	.	16b-
4C	4g	.	8ee	4C	.	8ee
.	.	16cc	8cc	.	16cc	8cc
.	.	16b-	.	.	16b-	.
8r	8r	8a	[4ff	8r	8a	[4ff
8A	8f	8cc	.	8A	8cc	.
=24	=24	=24	=24	=24	=24	=24
8B-	4d	8dd	4ff]	8B-	8dd	4ff]
8G	.	8b-	.	8G	8b-	.
8c	4c	8g	4ee	8c	8g	4ee
8C	.	8cc	.	8C	8cc	.
4F	4c	4a	4ff	4F	4a	4ff
4r	4r	4r	4r	4FF	4r	16r
.	.	.	.	.	.	16ccc
.	.	.	.	.	.	16ccc
.	.	.	.	.	.	16ccc
=25	=25	=25	=25	=25	=25	=25
1r	1r	1r	1r	4A	1r	16a
.	.	.	.	.	.	16ccc
.	.	.	.	.	.	16a
.	.	.	.	.	.	16ccc
.	.	.	.	4r	.	16a
.	.	.	.	.	.	16ccc
.	.	.	.	.	.	16a
.	.	.	.	.	.	16ccc
.	.	.	.	4d	.	16ff
.	.	.	.	.	.	16ccc
.	.	.	.	.	.	16ff
.	.	.	.	.	.	16ccc
.	.	.	.	4r	.	16ff
.	.	.	.	.	.	16ccc
.	.	.	.	.	.	16ff
.	.	.	.	.	.	16ccc
=26	=26	=26	=26	=26	=26	=26
1r	1r	1r	1r	4G	1r	16ff
.	.	.	.	.	.	16bb-
.	.	.	.	.	.	16ff
.	.	.	.	.	.	16bb-
.	.	.	.	4r	.	16ff
.	.	.	.	.	.	16bb-
.	.	.	.	.	.	16ff
.	.	.	.	.	.	16bb-
.	.	.	.	4c	.	16ee
.	.	.	.	.	.	16bb-
.	.	.	.	.	.	16ee
.	.	.	.	.	.	16bb-
.	.	.	.	4r	.	16ee
.	.	.	.	.	.	16bb-
.	.	.	.	.	.	16ee
.	.	.	.	.	.	16bb-
=27	=27	=27	=27	=27	=27	=27
1r	1r	1r	1r	4F	1r	16ee
.	.	.	.	.	.	16aa
.	.	.	.	.	.	16ee
.	.	.	.	.	.	16aa
.	.	.	.	4r	.	16ee
.	.	.	.	.	.	16aa
.	.	.	.	.	.	16ee
.	.	.	.	.	.	16aa
.	.	.	.	4B-	.	16dd
.	.	.	.	.	.	16aa
.	.	.	.	.	.	16dd
.	.	.	.	.	.	16aa
.	.	.	.	4r	.	16dd
.	.	.	.	.	.	16aa
.	.	.	.	.	.	16dd
.	.	.	.	.	.	16aa
=28	=28	=28	=28	=28	=28	=28
1r	1r	1r	1r	4B	1r	16dd
.	.	.	.	.	.	16gg
.	.	.	.	.	.	16dd
.	.	.	.	.	.	16gg
.	.	.	.	4r	.	16dd
.	.	.	.	.	.	16gg
.	.	.	.	.	.	16dd
.	.	.	.	.	.	16gg
.	.	.	.	4c	.	16ee
.	.	.	.	.	.	16cc
.	.	.	.	.	.	16ee
.	.	.	.	.	.	16cc
.	.	.	.	4r	.	16ee
.	.	.	.	.	.	16cc
.	.	.	.	.	.	16ee
.	.	.	.	.	.	16cc
=29	=29	=29	=29	=29	=29	=29
4A	4f	4cc	4ff	4A	4cc	16ff
.	.	.	.	.	.	16cc
.	.	.	.	.	.	16ff
.	.	.	.	.	.	16cc
4r	4r	4r	4r	4r	4r	16ff
.	.	.	.	.	.	16cc
.	.	.	.	.	.	16ff
.	.	.	.	.	.	16cc
4E	4c	4cc	4gg	4E	4cc	16gg
.	.	.	.	.	.	16cc
.	.	.	.	.	.	16gg
.	.	.	.	.	.	16cc
4r	4r	4r	4r	4r	4r	16gg
.	.	.	.	.	.	16cc
.	.	.	.	.	.	16gg
.	.	.	.	.	.	16cc
=30	=30	=30	=30	=30	=30	=30
4F	4A	4cc	4aa	4F	4cc	16aa
.	.	.	.	.	.	16cc
.	.	.	.	.	.	16aa
.	.	.	.	.	.	16cc
4r	4r	4r	4r	4r	4r	16aa
.	.	.	.	.	.	16cc
.	.	.	.	.	.	16aa
.	.	.	.	.	.	16cc
4E	4c	4cc	4gg	4E	4cc	16gg
.	.	.	.	.	.	16cc
.	.	.	.	.	.	16gg
.	.	.	.	.	.	16cc
4r	4r	4r	4r	4r	4r	16gg
.	.	.	.	.	.	16cc
.	.	.	.	.	.	16gg
.	.	.	.	.	.	16cc
=31	=31	=31	=31	=31	=31	=31
4D	4f	4cc	4.ff	4D	4cc	16ff
.	.	.	.	.	.	16cc
.	.	.	.	.	.	16ff
.	.	.	.	.	.	16cc
4G	8r	4.b-	.	4G	4.b-	16ff
.	.	.	.	.	.	16b-
.	8b-	.	8gg	.	.	16ff
.	.	.	.	.	.	16b-
4C	4g	.	8ee	4C	.	8ee
.	.	16cc	8cc	.	16cc	8cc
.	.	16b-	.	.	16b-	.
8r	8r	8a	[4ff	8r	8a	[4ff
8A	8f	8cc	.	8A	8cc	.
=32	=32	=32	=32	=32	=32	=32
8B-	4d	8dd	4ff]	8B-	8dd	4ff]
8G	.	8b-	.	8G	8b-	.
8c	4c	8g	4ee	8c	8g	4ee
8C	.	8cc	.	8C	8cc	.
8F	4c	4.a	4ff	8F	4.a	4ff
8G	.	.	.	8G	.	.
8A	8r	.	[4cc	8A	.	[4cc
8F	8f	8cc	.	8F	8cc	.
=33	=33	=33	=33	=33	=33	=33
8B-	4f	4.dd	8cc]	8B-	4.dd	8cc]
8c	.	.	8f	8c	.	8f
8d	8r	.	4.b-	8d	.	4.b-
8B-	8b-	8d	.	8B-	8d	.
8c	4g	8e	.	8c	8e	.
8E	.	8c	8cc	8E	8c	8cc
8F	8r	[4f	8a	8F	[4f	8a
8BB-	8d	.	8g	8BB-	.	8g
=34	=34	=34	=34	=34	=34	=34
4C	4c	4f]	4a	4C	4f]	4a
4CC	8r	4e	4g	4CC	4e	4g
.	8cc	.	.	.	.	.
8F	4a	4f	4.f	8F	4f	4.f
8G	.	.	.	8G	.	.
8A	8r	[4cc	.	8A	[4cc	.
8AA	8f	.	8cc	8AA	.	8cc
=35	=35	=35	=35	=35	=35	=35
8BB-	4.f	8cc]	4.dd	8BB-	8cc]	4.dd
8C	.	8f	.	8C	8f	.
8D	.	4.b-	.	8D	4.b-	.
8BB-	8b-	.	8d	8BB-	.	8d
8C	4g	.	8e	8C	.	8e
8E	.	8cc	8c	8E	8cc	8c
8F	8r	8a	[4f	8F	8a	[4f
8BB-	8d	8g	.	8BB-	8g	.
=36	=36	=36	=36	=36	=36	=36
4C	4c	4a	4f]	4C	4a	4f]
4CC	4c	4g	4e	4CC	4g	4e
2FF	2A	2f	2f	2FF	2f	2f
=37	=37	=37	=37	=37	=37	=37
1r	1r	1r	1r	8c#	1r	16ee
.	.	.	.	.	.	16aa
.	.	.	.	8B	.	16ee
.	.	.	.	.	.	16aa
.	.	.	.	8c#	.	16ee
.	.	.	.	.	.	16aa
.	.	.	.	8A	.	16ee
.	.	.	.	.	.	16aa
.	.	.	.	8d	.	16ff
.	.	.	.	.	.	16aa
.	.	.	.	8D	.	16ff
.	.	.	.	.	.	16aa
.	.	.	.	8F	.	16ff
.	.	.	.	.	.	16aa
.	.	.	.	8D	.	16ff
.	.	.	.	.	.	16aa
=38	=38	=38	=38	=38	=38	=38
8C#	4a	4cc#	4ee	8C#	4cc#	16ee
.	.	.	.	.	.	16aa
8BB	.	.	.	8BB	.	16ee
.	.	.	.	.	.	16aa
8C#	8r	8r	8r	8C#	8r	16ee
.	.	.	.	.	.	16aa
8AA	8a	8cc#	8ee	8AA	8cc#	16ee
.	.	.	.	.	.	16aa
2D	4a	4dd	4ff	8D	4dd	8ff
.	.	.	.	8E	.	8a
.	4r	4r	4r	8F	4r	4d
.	.	.	.	8D	.	.
=39	=39	=39	=39	=39	=39	=39
1r	1r	1r	1r	8F#	1r	16aa
.	.	.	.	.	.	16ddd
.	.	.	.	8E	.	16aa
.	.	.	.	.	.	16ddd
.	.	.	.	8F#	.	16aa
.	.	.	.	.	.	16ddd
.	.	.	.	8D	.	16aa
.	.	.	.	.	.	16ddd
.	.	.	.	8G	.	16bb-
.	.	.	.	.	.	16ddd
.	.	.	.	8A	.	16bb-
.	.	.	.	.	.	16ddd
.	.	.	.	8B-	.	16bb-
.	.	.	.	.	.	16ddd
.	.	.	.	8G	.	16bb-
.	.	.	.	.	.	16ddd
=40	=40	=40	=40	=40	=40	=40
8F#	4d	4ff#	4aa	8F#	4ff#	16aa
.	.	.	.	.	.	16ddd
8E	.	.	.	8E	.	16aa
.	.	.	.	.	.	16ddd
8F#	8r	8r	8r	8F#	8r	16aa
.	.	.	.	.	.	16ddd
8D	8d	8ff#	8aa	8D	8ff#	16aa
.	.	.	.	.	.	16ddd
4G	4d	4gg	4bb-	8G	4gg	8bb-
.	.	.	.	8A	.	8dd
4r	4r	4r	4r	8B-	4r	4g
.	.	.	.	8G	.	.
=41	=41	=41	=41	=41	=41	=41
1r	1r	1r	1r	8E	1r	16gg#
.	.	.	.	.	.	16ee
.	.	.	.	8F	.	16gg#
.	.	.	.	.	.	16ee
.	.	.	.	8E	.	16gg#
.	.	.	.	.	.	16ee
.	.	.	.	8D	.	16gg#
.	.	.	.	.	.	16ee
.	.	.	.	8C	.	16aa
.	.	.	.	.	.	16ee
.	.	.	.	8BB	.	16aa
.	.	.	.	.	.	16ee
.	.	.	.	8C	.	16aa
.	.	.	.	.	.	16ee
.	.	.	.	8AA	.	16aa
.	.	.	.	.	.	16ee
=42	=42	=42	=42	=42	=42	=42
8G#	4e	4gg#	4bb	8G#	4gg#	16bb
.	.	.	.	.	.	16ee
8F#	.	.	.	8F#	.	16bb
.	.	.	.	.	.	16ee
8G#	8r	8r	8r	8G#	8r	16bb
.	.	.	.	.	.	16ee
8E	8e	8gg#	8bb	8E	8gg#	16bb
.	.	.	.	.	.	16ee
4A	4e	4aa	4ccc	8A	4aa	16ccc
.	.	.	.	.	.	16aa
.	.	.	.	8B	.	16ccc
.	.	.	.	.	.	16aa
4r	4r	4r	4r	8c	4r	16ccc
.	.	.	.	.	.	16aa
.	.	.	.	8A	.	16ccc
.	.	.	.	.	.	16aa
=43	=43	=43	=43	=43	=43	=43
4D	4d	4ff	4aa	8F	4ff	16ddd
.	.	.	.	.	.	16aa
.	.	.	.	8E	.	16ddd
.	.	.	.	.	.	16aa
4r	4r	4r	4r	8F	4r	16ddd
.	.	.	.	.	.	16aa
.	.	.	.	8D	.	16ddd
.	.	.	.	.	.	16aa
8G#	4e	8ee	8bb	8G#	8ee	8eee
8E	.	8gg#	8ee	8E	8gg#	8ee
8A	8r	[4aa	8cc	8A	[4aa	8cc
8D	8f	.	8b	8D	.	8b
=44	=44	=44	=44	=44	=44	=44
4E	4e	4aa]	4cc	8E	4aa]	4cc
.	.	.	.	8D	.	.
4EE	4e	4gg#	4b	8E	4gg#	4b
.	.	.	.	8EE	.	.
2AA	2e	2aa	2a	2AA	2aa	2a
=45	=45	=45	=45	=45	=45	=45
1r	1r	1r	1r	8E	1r	16gg#
.	.	.	.	.	.	16ee
.	.	.	.	8F	.	16gg#
.	.	.	.	.	.	16ee
.	.	.	.	8E	.	16gg#
.	.	.	.	.	.	16ee
.	.	.	.	8D	.	16gg#
.	.	.	.	.	.	16ee
.	.	.	.	8C	.	16aa
.	.	.	.	.	.	16ee
.	.	.	.	8BB	.	16aa
.	.	.	.	.	.	16ee
.	.	.	.	8C	.	16aa
.	.	.	.	.	.	16ee
.	.	.	.	8AA	.	16aa
.	.	.	.	.	.	16ee
=46	=46	=46	=46	=46	=46	=46
8G#	4e	4gg#	4bb	8G#	4gg#	16bb
.	.	.	.	.	.	16ee
8F#	.	.	.	8F#	.	16bb
.	.	.	.	.	.	16ee
8G#	8r	8r	8r	8G#	8r	16bb
.	.	.	.	.	.	16ee
8E	8e	8gg#	8bb	8E	8gg#	16bb
.	.	.	.	.	.	16ee
4A	4e	4aa	4ccc	8A	4aa	16ccc
.	.	.	.	.	.	16aa
.	.	.	.	8B	.	16ccc
.	.	.	.	.	.	16aa
4r	4r	4r	4r	8c	4r	16ccc
.	.	.	.	.	.	16aa
.	.	.	.	8A	.	16ccc
.	.	.	.	.	.	16aa
=47	=47	=47	=47	=47	=47	=47
4D	4d	4ff	4aa	8F	4ff	16ddd
.	.	.	.	.	.	16aa
.	.	.	.	8E	.	16ddd
.	.	.	.	.	.	16aa
4r	4r	4r	4r	8F	4r	16ddd
.	.	.	.	.	.	16aa
.	.	.	.	8D	.	16ddd
.	.	.	.	.	.	16aa
8G#	4e	8ee	8bb	8G#	8ee	8eee
8E	.	8gg#	8ee	8E	8gg#	8ee
8A	8r	[4aa	8cc	8A	[4aa	8cc
8D	8f	.	8b	8D	.	8b
=48	=48	=48	=48	=48	=48	=48
4G	4e	4aa]	4cc	8E	4aa]	4cc
.	.	.	.	8D	.	.
4EE	4e	4gg#	4b	8E	4gg#	4b
.	.	.	.	8EE	.	.
2AA	2e	2aa	2a	2AA	2aa	4a
.	.	.	.	.	.	8r
.	.	.	.	.	.	8cc
=49	=49	=49	=49	=49	=49	=49
1r	1r	1r	1r	4F	1r	16ff
.	.	.	.	.	.	16ee
.	.	.	.	.	.	16ff
.	.	.	.	.	.	16gg
.	.	.	.	8r	.	16ff
.	.	.	.	.	.	16gg
.	.	.	.	8f	.	16ee
.	.	.	.	.	.	16ff
.	.	.	.	8e	.	16gg
.	.	.	.	.	.	16ff
.	.	.	.	8d	.	16gg
.	.	.	.	.	.	16aa
.	.	.	.	8e	.	16gg
.	.	.	.	.	.	16aa
.	.	.	.	8c	.	16ff
.	.	.	.	.	.	16gg
=50	=50	=50	=50	=50	=50	=50
1r	1r	1r	2..r	4f	1r	16aa
.	.	.	.	.	.	16gg
.	.	.	.	.	.	16aa
.	.	.	.	.	.	16bb-
.	.	.	.	4F	.	16aa
.	.	.	.	.	.	16bb-
.	.	.	.	.	.	16ff
.	.	.	.	.	.	16aa
.	.	.	.	2c	.	4gg
.	.	.	.	.	.	8r
.	.	.	8cc	.	.	8cc
=51	=51	=51	=51	=51	=51	=51
4F	4c	4a	16ff	4F	4a	16ff
.	.	.	16ee	.	.	16ee
.	.	.	16ff	.	.	16ff
.	.	.	16gg	.	.	16gg
8r	8r	8r	16ff	8r	8r	16ff
.	.	.	16gg	.	.	16gg
8F	8c	8a	16ee	8F	8a	16ee
.	.	.	16ff	.	.	16ff
8E	4c	4cc	16gg	8E	4cc	16gg
.	.	.	16ff	.	.	16ff
8D	.	.	16gg	8D	.	16gg
.	.	.	16aa	.	.	16aa
8E	8r	8r	16gg	8E	8r	16gg
.	.	.	16aa	.	.	16aa
8C	8c	8cc	16ff	8C	8cc	16ff
.	.	.	16gg	.	.	16gg
=52	=52	=52	=52	=52	=52	=52
4F	4A	4cc	16aa	4F	4cc	16aa
.	.	.	16gg	.	.	16gg
.	.	.	16aa	.	.	16aa
.	.	.	16bb-	.	.	16bb-
4FF	4c	4ff	16aa	4FF	4ff	16aa
.	.	.	16bb-	.	.	16bb-
.	.	.	16ff	.	.	16ff
.	.	.	16aa	.	.	16aa
4C	4c	4ee	4gg	4C	4ee	4gg
4r	4r	4r	4r	4r	4r	8r
.	.	.	.	.	.	16ccc
.	.	.	.	.	.	16bb-
=53	=53	=53	=53	=53	=53	=53
2r	2r	2r	2r	8A	2r	16aa
.	.	.	.	.	.	16ccc
.	.	.	.	8B-	.	16bb-
.	.	.	.	.	.	16ccc
.	.	.	.	8c	.	16aa
.	.	.	.	.	.	16ccc
.	.	.	.	8A	.	16bb-
.	.	.	.	.	.	16ccc
4d	4dd	4ff	4aa	8d	4ff	16ff
.	.	.	.	.	.	16aa
.	.	.	.	8D	.	16ff
.	.	.	.	.	.	16aa
4D	4a	4d	4f	8F	4d	16ff
.	.	.	.	.	.	16aa
.	.	.	.	8D	.	16ff
.	.	.	.	.	.	16aa
=54	=54	=54	=54	=54	=54	=54
2r	2r	2r	2r	8r	2r	16dd
.	.	.	.	.	.	16bb-
.	.	.	.	8G	.	16dd
.	.	.	.	.	.	16bb-
.	.	.	.	8B-	.	16dd
.	.	.	.	.	.	16bb-
.	.	.	.	8G	.	16dd
.	.	.	.	.	.	16bb-
4c	4cc	4ee	4gg	8c	4ee	16ee
.	.	.	.	.	.	16gg
.	.	.	.	8C	.	16ee
.	.	.	.	.	.	16gg
4C	4g	4c	4e	8E	4c	16ee
.	.	.	.	.	.	16gg
.	.	.	.	8C	.	16ee
.	.	.	.	.	.	16gg
=55	=55	=55	=55	=55	=55	=55
2r	2r	2r	2r	8r	2r	16cc
.	.	.	.	.	.	16aa
.	.	.	.	8F	.	16cc
.	.	.	.	.	.	16aa
.	.	.	.	8A	.	16cc
.	.	.	.	.	.	16aa
.	.	.	.	8F	.	16cc
.	.	.	.	.	.	16aa
4B-	4b-	4dd	4ff	8B-	4dd	16dd
.	.	.	.	.	.	16ff
.	.	.	.	8BB-	.	16dd
.	.	.	.	.	.	16ff
4BB-	4f	4B-	4d	8D	4B-	16dd
.	.	.	.	.	.	16ff
.	.	.	.	8BB-	.	16dd
.	.	.	.	.	.	16ff
=56	=56	=56	=56	=56	=56	=56
2r	2r	2r	2r	8r	2r	16b
.	.	.	.	.	.	16gg
.	.	.	.	8G	.	16b
.	.	.	.	.	.	16gg
.	.	.	.	8B	.	16b
.	.	.	.	.	.	16gg
.	.	.	.	8G	.	16b
.	.	.	.	.	.	16gg
4c	4cc	4gg	4ee	4c	4gg	16ee
.	.	.	.	.	.	16cc
.	.	.	.	.	.	16ee
.	.	.	.	.	.	16cc
4C	4g	4e	4c	4C	4e	16ee
.	.	.	.	.	.	16cc
.	.	.	.	.	.	16ee
.	.	.	.	.	.	16cc
=57	=57	=57	=57	=57	=57	=57
8E	4.c	4.gg	16gg	8E	4.gg	16gg
.	.	.	16ee	.	.	16ee
8D	.	.	16gg	8D	.	16gg
.	.	.	16ee	.	.	16ee
8E	.	.	16gg	8E	.	16gg
.	.	.	16ee	.	.	16ee
8C	8c	8gg	16gg	8C	8gg	16gg
.	.	.	16ee	.	.	16ee
8F	4c	4gg	16aa	8F	4gg	16aa
.	.	.	16ff	.	.	16ff
8E	.	.	16aa	8E	.	16aa
.	.	.	16ff	.	.	16ff
8F	4f	4ff	16aa	8F	4ff	16aa
.	.	.	16ff	.	.	16ff
8D	.	.	16aa	8D	.	16aa
.	.	.	16ff	.	.	16ff
=58	=58	=58	=58	=58	=58	=58
8G	4d	4.ff	16bb	8G	4.ff	16bb
.	.	.	16gg	.	.	16gg
8F	.	.	16bb	8F	.	16bb
.	.	.	16gg	.	.	16gg
8G	4g	.	16bb	8G	.	16bb
.	.	.	16gg	.	.	16gg
8E	.	8ff	16bb	8E	8ff	16bb
.	.	.	16gg	.	.	16gg
8A	2c	4ff	4ccc	8A	4ff	4ccc
8B	.	.	.	8B	.	.
8c	.	4ee	8r	8c	4ee	8r
8E	.	.	8gg	8E	.	8gg
=59	=59	=59	=59	=59	=59	=59
8F	4.c	4.a	8aa	8F	4.a	8aa
8G	.	.	8cc	8G	.	8cc
8A	.	.	4.ff	8A	.	4.ff
8F	8f	8dd	.	8F	8dd	.
8G	4d	8b	.	8G	8b	.
8B	.	8g	8gg	8B	8g	8gg
8c	8e	[4cc	8ee	8c	[4cc	8ee
8F	8a	.	8dd	8F	.	8dd
=60	=60	=60	=60	=60	=60	=60
8G	4g	4cc]	4ee	8G	4cc]	4ee
8F	.	.	.	8F	.	.
8G	4g	4b	4dd	8G	4b	4dd
8GG	.	.	.	8GG	.	.
4C	4e	4cc	4cc	8C	4cc	4cc
.	.	.	.	8c	.	.
4r	4r	4r	4r	8B-	4r	8r
.	.	.	.	8c	.	8cc
=61	=61	=61	=61	=61	=61	=61
2r	2r	2r	2r	8A	2r	16ff
.	.	.	.	.	.	16ee
.	.	.	.	8F	.	16ff
.	.	.	.	.	.	16gg
.	.	.	.	8A	.	16ff
.	.	.	.	.	.	16gg
.	.	.	.	8F	.	16ee
.	.	.	.	.	.	16ff
4B-	4b-	4ff	4dd	8B-	4ff	16dd
.	.	.	.	.	.	16cc
.	.	.	.	8BB-	.	16dd
.	.	.	.	.	.	16ee
4BB-	4f	4d	4B-	8D	4d	16ff
.	.	.	.	.	.	16ee
.	.	.	.	8BB-	.	16ff
.	.	.	.	.	.	16dd
=62	=62	=62	=62	=62	=62	=62
2r	2r	2r	2r	8r	2r	16gg
.	.	.	.	.	.	16ff
.	.	.	.	8G	.	16gg
.	.	.	.	.	.	16aa
.	.	.	.	8B	.	16gg
.	.	.	.	.	.	16aa
.	.	.	.	8G	.	16ff
.	.	.	.	.	.	16gg
4c	4cc	4gg	4ee	8c	4gg	16ee
.	.	.	.	.	.	16dd
.	.	.	.	8C	.	16ee
.	.	.	.	.	.	16ff
4C	4g	4e	4c	8E	4e	16gg
.	.	.	.	.	.	16ff
.	.	.	.	8C	.	16gg
.	.	.	.	.	.	16ee
=63	=63	=63	=63	=63	=63	=63
2r	2r	2r	2r	8r	2r	16aa
.	.	.	.	.	.	16gg
.	.	.	.	8A	.	16aa
.	.	.	.	.	.	16bb-
.	.	.	.	8c#	.	16aa
.	.	.	.	.	.	16bb-
.	.	.	.	8A	.	16gg
.	.	.	.	.	.	16aa
4d	4dd	4aa	4ff	8d	4aa	16ff
.	.	.	.	.	.	16ee
.	.	.	.	8D	.	16ff
.	.	.	.	.	.	16gg
4D	4a	4f	4d	8F	4f	16ff
.	.	.	.	.	.	16gg
.	.	.	.	8D	.	16ee
.	.	.	.	.	.	16ff
=64	=64	=64	=64	=64	=64	=64
4E	4cc	4cc	4gg	4E	4cc	16gg
.	.	.	.	.	.	16ff
.	.	.	.	.	.	16gg
.	.	.	.	.	.	16aa
4r	4r	4r	4r	4r	4r	16gg
.	.	.	.	.	.	16aa
.	.	.	.	.	.	16ff
.	.	.	.	.	.	16gg
4F	4a	4cc	4aa	4F	4cc	16aa
.	.	.	.	.	.	16gg
.	.	.	.	.	.	16aa
.	.	.	.	.	.	16bb-
4r	4r	4r	4r	4r	4r	16aa
.	.	.	.	.	.	16bb-
.	.	.	.	.	.	16gg
.	.	.	.	.	.	16aa
=65	=65	=65	=65	=65	=65	=65
4G	4g	4ee	4bb-	4G	4ee	16bb-
.	.	.	.	.	.	16aa
.	.	.	.	.	.	16bb-
.	.	.	.	.	.	16ccc
4r	4r	4r	4r	4r	4r	16bb-
.	.	.	.	.	.	16ccc
.	.	.	.	.	.	16aa
.	.	.	.	.	.	16bb-
4.A	4.c	4.ff	8ccc	4.A	4.ff	8ccc
.	.	.	8cc	.	.	8cc
.	.	.	[4ff	.	.	[4ff
8A	8a	8cc	.	8A	8cc	.
=66	=66	=66	=66	=66	=66	=66
8B-	4d	8dd	4ff]	8B-	8dd	4ff]
8G	.	8b-	.	8G	8b-	.
8c	4c	8g	4ee	8c	8g	4ee
8C	.	8cc	.	8C	8cc	.
4F	4c	4a	4ff	8F	4a	4ff
.	.	.	.	8c	.	.
4r	4r	4r	4r	8B-	4r	8r
.	.	.	.	8c	.	8cc
=67	=67	=67	=67	=67	=67	=67
2r	2r	2r	2r	8A	2r	16ff
.	.	.	.	.	.	16ee
.	.	.	.	8F	.	16ff
.	.	.	.	.	.	16gg
.	.	.	.	8A	.	16ff
.	.	.	.	.	.	16gg
.	.	.	.	8F	.	16ee
.	.	.	.	.	.	16ff
4B-	4b-	4ff	4dd	8B-	4ff	16dd
.	.	.	.	.	.	16cc
.	.	.	.	8BB-	.	16dd
.	.	.	.	.	.	16ee
4BB-	4f	4d	4B-	8D	4d	16ff
.	.	.	.	.	.	16ee
.	.	.	.	8BB-	.	16ff
.	.	.	.	.	.	16dd
=68	=68	=68	=68	=68	=68	=68
2r	2r	2r	2r	8r	2r	16gg
.	.	.	.	.	.	16ff
.	.	.	.	8G	.	16gg
.	.	.	.	.	.	16aa
.	.	.	.	8B	.	16gg
.	.	.	.	.	.	16aa
.	.	.	.	8G	.	16ff
.	.	.	.	.	.	16gg
4c	4cc	4gg	4ee	8c	4gg	16ee
.	.	.	.	.	.	16dd
.	.	.	.	8C	.	16ee
.	.	.	.	.	.	16ff
4C	4g	4e	4c	8E	4e	16gg
.	.	.	.	.	.	16ff
.	.	.	.	8C	.	16gg
.	.	.	.	.	.	16ee
=69	=69	=69	=69	=69	=69	=69
2r	2r	2r	2r	8r	2r	16aa
.	.	.	.	.	.	16gg
.	.	.	.	8A	.	16aa
.	.	.	.	.	.	16bb-
.	.	.	.	8c#	.	16aa
.	.	.	.	.	.	16bb-
.	.	.	.	8A	.	16gg
.	.	.	.	.	.	16aa
4d	4dd	4aa	4ff	8d	4aa	16ff
.	.	.	.	.	.	16ee
.	.	.	.	8D	.	16ff
.	.	.	.	.	.	16gg
4D	4a	4f	4d	8F	4f	16ff
.	.	.	.	.	.	16gg
.	.	.	.	8D	.	16ee
.	.	.	.	.	.	16ff
=70	=70	=70	=70	=70	=70	=70
4E	4cc	4cc	4gg	4E	4cc	16gg
.	.	.	.	.	.	16ff
.	.	.	.	.	.	16gg
.	.	.	.	.	.	16aa
4r	4r	4r	4r	4r	4r	16gg
.	.	.	.	.	.	16aa
.	.	.	.	.	.	16ff
.	.	.	.	.	.	16gg
4F	4a	4cc	4aa	4F	4cc	16aa
.	.	.	.	.	.	16gg
.	.	.	.	.	.	16aa
.	.	.	.	.	.	16bb-
4r	4r	4r	4r	4r	4r	16aa
.	.	.	.	.	.	16bb-
.	.	.	.	.	.	16gg
.	.	.	.	.	.	16aa
=71	=71	=71	=71	=71	=71	=71
4G	4g	4ee	4bb-	4G	4ee	16bb-
.	.	.	.	.	.	16aa
.	.	.	.	.	.	16bb-
.	.	.	.	.	.	16ccc
4r	4r	4r	4r	4r	4r	16bb-
.	.	.	.	.	.	16ccc
.	.	.	.	.	.	16aa
.	.	.	.	.	.	16bb-
4.A	4.c	4.ff	8ccc	4.A	4.ff	8ccc
.	.	.	8cc	.	.	8cc
.	.	.	[4ff	.	.	[4ff
8A	8a	8cc	.	8A	8cc	.
=72	=72	=72	=72	=72	=72	=72
8B-	4d	8dd	4ff]	8B-	8dd	4ff]
8G	.	8b-	.	8G	8b-	.
8c	4c	8g	4ee	8c	8g	4ee
8C	.	8cc	.	8C	8cc	.
8F	4.c	4.a	4ff	8F	4.a	4ff
8G	.	.	.	8G	.	.
8A	.	.	[4cc	8A	.	[4cc
8AA	8f	8cc	.	8AA	8cc	.
=73	=73	=73	=73	=73	=73	=73
8BB-	4f	4.dd	8cc]	8BB-	4.dd	8cc]
8C	.	.	8f	8C	.	8f
8D	8r	.	4.b-	8D	.	4.b-
8BB-	8b-	8d	.	8BB-	8d	.
8C	4g	8e	.	8C	8e	.
8E	.	8c	8cc	8E	8c	8cc
8F	8r	[4f	8a	8F	[4f	8a
8BB-	8d	.	8g	8BB-	.	8g
=74	=74	=74	=74	=74	=74	=74
8C	4c	4f]	4a	8C	4f]	4a
8BB-	.	.	.	8BB-	.	.
8C	4c	4e	4g	8C	4e	4g
8CC	.	.	.	8CC	.	.
8F	4.A	4f	4.f	8F	4f	4.f
8G	.	.	.	8G	.	.
8A	.	[4cc	.	8A	[4cc	.
8AA	8f	.	8cc	8AA	.	8cc
=75	=75	=75	=75	=75	=75	=75
8BB-	4f	8cc]	4.dd	8BB-	8cc]	4.dd
8C	.	8f	.	8C	8f	.
8D	8r	4.b-	.	8D	4.b-	.
8BB-	8b-	.	8d	8BB-	.	8d
8C	4g	.	8e	8C	.	8e
8E	.	8cc	8c	8E	8cc	8c
8F	8r	8a	[4f	8F	8a	[4f
8BB-	8d	8g	.	8BB-	8g	.
=76	=76	=76	=76	=76	=76	=76
8C	4c	4a	4f]	8C	4a	4f]
8BB-	.	.	.	8BB-	.	.
8C	4c	4g	4e	8C	4g	4e
8CC	.	.	.	8CC	.	.
2FF	2A	2f	2f	2FF	2f	2f
==	==	==	==	==	==	==
*-	*-	*-	*-	*-	*-	*-
!!!RWG: This file only contains pitch and duration data.
!!!RWG: Transposing instruments are not transposed.
!!!RWG: Durations of rests and tied notes may be interpreted.
!!!RWG: Key is interpreted using the Humdrum key tool.
!!!SCA: 
!!!YOR: Chrysander Edition
!!!AGN: concerto grosso
!!!AFT: stage1
!!!ENC: F. Bennion
!!!END: 1997/04/15
!!!AST: baroque
!!!YEC: Copyright 1994, Center for Computer Assisted Research in the Humanities
!!!YEM: Rights to all derivative electronic formats reserved.
!!!YEM: Refer to licensing agreement for further details.
!!!YEN: United States of America
!!!EED: W.B. Hewlett
!!!KEY: 1246530276
!!!EMD: Converted from MuseData to Humdrum Aug 2, 1999, by Bret Aarden using muse2kern.
!!!VTS: 699295928
